static/logos/grammarly-glyph-color.svg

<svg width="50" height="50" viewBox="0 0 50 50" fill="none" xmlns="http://www.w3.org/2000/svg">
<g clip-path="url(#clip0_1_2553)">
<path d="M25 0C11.1933 0 0 11.1925 0 25H50C50 11.1925 38.8076 0 25 0Z" fill="#129C78"/>
<path d="M25 50C38.8076 50 50 38.8069 50 25.0001H0C0 38.8069 11.1933 50 25 50Z" fill="#129C78"/>
<path opacity="0.2" fill-rule="evenodd" clip-rule="evenodd" d="M29.9341 28.7177C29.685 28.7177 29.4388 28.7728 29.2134 28.8789C28.8735 29.0389 28.5964 29.3073 28.4255 29.6418C28.2546 29.9763 28.1996 30.3582 28.2692 30.7273C28.4166 31.5458 29.1862 32.1063 30.0181 32.1063H32.6372L34.1559 31.8933C31.7262 35.4579 27.5083 37.0974 22.896 36.3737C19.1422 35.7839 15.9196 33.2447 14.5522 29.6972C11.4664 21.6433 17.3483 13.954 25.0123 13.954C29.0074 13.954 32.5094 16.2928 34.5181 19.1161V19.1775C34.7714 19.5498 35.1615 19.8066 35.6033 19.8919C36.0454 19.9772 36.5033 19.884 36.8766 19.6326C37.224 19.3923 37.4677 19.0291 37.5582 18.6164C37.649 18.2036 37.5799 17.7719 37.3648 17.408H37.3776C35.9585 15.1853 33.9661 13.3863 31.6106 12.2005C29.2551 11.0147 26.6234 10.4859 23.9927 10.6698C16.6881 11.1619 10.773 17.1435 10.353 24.4559C9.86481 32.9668 16.6159 39.9158 25.0123 39.9158C27.1078 39.924 29.1803 39.4789 31.0875 38.6109C32.9947 37.7431 34.6918 36.4727 36.0622 34.8875L35.7437 36.6717V38.2829C35.7437 39.1132 36.3033 39.8835 37.1227 40.0309C37.3677 40.0773 37.6197 40.0691 37.8612 40.0066C38.1026 39.9444 38.3273 39.8296 38.5191 39.6704C38.7112 39.5115 38.8654 39.3118 38.9714 39.0862C39.0776 38.8605 39.1325 38.6145 39.1322 38.3651V28.7177H29.9341Z" fill="black"/>
<path fill-rule="evenodd" clip-rule="evenodd" d="M29.9341 28.3888C29.685 28.3888 29.4388 28.4439 29.2134 28.55C28.8735 28.71 28.5964 28.9783 28.4255 29.3129C28.2546 29.6474 28.1996 30.0292 28.2692 30.3984C28.4166 31.2168 29.1862 31.7774 30.0181 31.7774H32.6372L34.1559 31.5644C31.7262 35.129 27.5083 36.7684 22.896 36.0448C19.1422 35.455 15.9196 32.9158 14.5522 29.3682C11.4664 21.3144 17.3483 13.6251 25.0123 13.6251C29.0074 13.6251 32.5094 15.9638 34.5181 18.7872V18.8486C34.7714 19.2208 35.1615 19.4777 35.6033 19.563C36.0454 19.6483 36.5033 19.5551 36.8766 19.3037C37.224 19.0633 37.4677 18.7002 37.5582 18.2875C37.649 17.8747 37.5799 17.443 37.3648 17.0791H37.3776C35.9585 14.8564 33.9661 13.0574 31.6106 11.8716C29.2551 10.6858 26.6234 10.157 23.9927 10.3409C16.6881 10.833 10.773 16.8146 10.353 24.127C9.86481 32.6377 16.6159 39.5869 25.0123 39.5869C27.1078 39.5951 29.1803 39.15 31.0875 38.2819C32.9947 37.4142 34.6918 36.1438 36.0622 34.5586L35.7437 36.3428V37.954C35.7437 38.7842 36.3033 39.5546 37.1227 39.702C37.3677 39.7484 37.6197 39.7402 37.8612 39.6777C38.1026 39.6155 38.3273 39.5007 38.5191 39.3415C38.7112 39.1826 38.8654 38.9829 38.9714 38.7573C39.0776 38.5316 39.1325 38.2855 39.1322 38.0362V28.3888H29.9341Z" fill="white"/>
</g>
<defs>
<clipPath id="clip0_1_2553">
<rect width="50" height="50" fill="white"/>
</clipPath>
</defs>
</svg>

<svg xmlns="http://www.w3.org/2000/svg" width="64" height="64" fill="none" viewBox="0 0 50 50"><g clip-path="url(#a)"><path fill="#129C78" d="M25 0C11.193 0 0 11.193 0 25h50C50 11.193 38.808 0 25 0ZM25 50c13.808 0 25-11.193 25-25H0c0 13.807 11.193 25 25 25Z"/><path fill="#000" fill-rule="evenodd" d="M29.934 28.718a1.693 1.693 0 0 0-1.665 2.01c.148.818.917 1.378 1.75 1.378h2.618l1.519-.213c-2.43 3.565-6.648 5.204-11.26 4.48-3.754-.59-6.976-3.128-8.344-6.676-3.086-8.054 2.796-15.743 10.46-15.743 3.995 0 7.497 2.339 9.506 5.162v.061a1.703 1.703 0 0 0 2.359.456 1.671 1.671 0 0 0 .488-2.225h.013a14.667 14.667 0 0 0-13.385-6.738c-7.305.492-13.22 6.473-13.64 13.786-.488 8.51 6.263 15.46 14.66 15.46a14.529 14.529 0 0 0 11.05-5.028l-.32 1.784v1.61c0 .831.56 1.602 1.38 1.749a1.69 1.69 0 0 0 1.848-.945c.107-.225.162-.471.161-.72v-9.648h-9.198Z" clip-rule="evenodd" opacity=".2"/><path fill="#fff" fill-rule="evenodd" d="M29.934 28.389a1.693 1.693 0 0 0-1.665 2.01c.148.818.917 1.378 1.75 1.378h2.618l1.519-.213c-2.43 3.565-6.648 5.204-11.26 4.48-3.754-.589-6.976-3.128-8.344-6.676-3.086-8.054 2.796-15.743 10.46-15.743 3.995 0 7.497 2.339 9.506 5.162v.062a1.703 1.703 0 0 0 2.359.455 1.671 1.671 0 0 0 .488-2.225h.013a14.667 14.667 0 0 0-13.385-6.738c-7.305.492-13.22 6.474-13.64 13.786-.488 8.51 6.263 15.46 14.66 15.46a14.527 14.527 0 0 0 11.05-5.028l-.32 1.784v1.611c0 .83.56 1.6 1.38 1.748a1.69 1.69 0 0 0 1.848-.945c.107-.225.162-.471.161-.72v-9.648h-9.198Z" clip-rule="evenodd"/></g><defs><clipPath id="a"><path fill="#fff" d="M0 0h50v50H0z"/></clipPath></defs></svg>
